assets/icons/carriage/BISTRO.svg

<svg width="34" height="34" viewBox="0 0 34 34" fill="none" xmlns="http://www.w3.org/2000/svg">
<g clip-path="url(#clip0_145_2)">
<rect width="34" height="34" rx="17" fill="#414141"/>
<path d="M26.5727 21.6571C26.9076 21.8286 27.203 21.7905 27.4591 21.5429C27.7152 21.2952 27.7545 21.0095 27.5773 20.6857L25.8636 17.6L24.6227 20.6857L26.5727 21.6571ZM20.6636 20.5714H22.0818L24.9182 13.7714C24.9773 13.619 24.9625 13.4905 24.8739 13.3857C24.7852 13.281 24.6818 13.2 24.5636 13.1429L22.2 12.2286C22.0227 12.1714 21.8504 12.1905 21.683 12.2857C21.5155 12.381 21.4121 12.5143 21.3727 12.6857L20.6636 20.5714ZM11.9182 20.5714H13.3364L12.6273 12.6857C12.5879 12.4762 12.4845 12.3333 12.317 12.2571C12.1496 12.181 11.9773 12.1714 11.8 12.2286L9.43636 13.1429C9.27879 13.2 9.16553 13.281 9.09659 13.3857C9.02765 13.4905 9.02273 13.619 9.08182 13.7714L11.9182 20.5714ZM7.42727 21.6571L9.37727 20.6857L8.13636 17.6L6.42273 20.6857C6.24545 21.0095 6.28485 21.2952 6.54091 21.5429C6.79697 21.7905 7.09242 21.8286 7.42727 21.6571ZM15.7 20.5714H18.3L19.1864 10.9143C19.2258 10.7429 19.1814 10.5952 19.0534 10.4714C18.9254 10.3476 18.7727 10.2857 18.5955 10.2857H15.4045C15.247 10.2857 15.1042 10.3476 14.9761 10.4714C14.8481 10.5952 14.7939 10.7429 14.8136 10.9143L15.7 20.5714ZM6.89545 24C6.06818 24 5.37879 23.7 4.82727 23.1C4.27576 22.5 4 21.7905 4 20.9714C4 20.7429 4.03447 20.519 4.10341 20.3C4.17235 20.081 4.25606 19.8667 4.35455 19.6571L6.95455 14.8571C6.67879 14.0952 6.68864 13.3429 6.98409 12.6C7.27955 11.8571 7.80152 11.3333 8.55 11.0286L10.9136 10.1143C11.1894 10.019 11.4652 9.95238 11.7409 9.91429C12.0167 9.87619 12.2924 9.88571 12.5682 9.94286C12.8439 9.39048 13.228 8.92857 13.7205 8.55714C14.2129 8.18571 14.7742 8 15.4045 8H18.5955C19.2258 8 19.7871 8.18571 20.2795 8.55714C20.772 8.92857 21.1561 9.39048 21.4318 9.94286C21.7076 9.90476 21.9833 9.9 22.2591 9.92857C22.5348 9.95714 22.8106 10.019 23.0864 10.1143L25.45 11.0286C26.2379 11.3333 26.7894 11.8571 27.1045 12.6C27.4197 13.3429 27.4 14.0762 27.0455 14.8L29.6455 19.6C29.7636 19.8095 29.8523 20.0286 29.9114 20.2571C29.9705 20.4857 30 20.7238 30 20.9714C30 21.8286 29.6996 22.5476 29.0989 23.1286C28.4981 23.7095 27.7545 24 26.8682 24C26.6515 24 26.4348 23.9762 26.2182 23.9286C26.0015 23.881 25.7848 23.8095 25.5682 23.7143L23.7364 22.8571H10.2045L8.55 23.7143C8.29394 23.8476 8.02311 23.9286 7.7375 23.9571C7.45189 23.9857 7.17121 24 6.89545 24Z" fill="white"/>
</g>
<defs>
<clipPath id="clip0_145_2">
<rect width="34" height="34" fill="white"/>
</clipPath>
</defs>
</svg>

<svg xmlns="http://www.w3.org/2000/svg" width="34" height="34" fill="none"><g clip-path="url(#a)"><rect width="34" height="34" fill="#414141" rx="17"/><path fill="#fff" d="M26.573 21.657c.335.172.63.134.886-.114s.296-.534.118-.857L25.864 17.6l-1.241 3.086 1.95.971Zm-5.91-1.086h1.419l2.836-6.8c.06-.152.044-.28-.044-.385a.94.94 0 0 0-.31-.243l-2.364-.914a.62.62 0 0 0-.517.057.605.605 0 0 0-.31.4l-.71 7.885Zm-8.745 0h1.418l-.709-7.885c-.04-.21-.143-.353-.31-.429a.694.694 0 0 0-.517-.028l-2.364.914a.657.657 0 0 0-.34.243c-.068.105-.073.233-.014.385l2.836 6.8Zm-4.49 1.086 1.95-.971L8.135 17.6l-1.713 3.086c-.178.323-.138.61.118.857.256.248.551.286.886.114Zm8.272-1.086h2.6l.886-9.657a.442.442 0 0 0-.133-.443.636.636 0 0 0-.457-.185h-3.191c-.158 0-.3.062-.429.185a.507.507 0 0 0-.162.443l.886 9.657ZM6.895 24c-.827 0-1.516-.3-2.068-.9A3.04 3.04 0 0 1 4 20.971c0-.228.034-.452.103-.671.07-.219.153-.433.252-.643l2.6-4.8a3.08 3.08 0 0 1 .03-2.257 2.721 2.721 0 0 1 1.565-1.571l2.364-.915c.275-.095.551-.162.827-.2.276-.038.551-.028.827.029a3.887 3.887 0 0 1 1.152-1.386A2.723 2.723 0 0 1 15.404 8h3.192c.63 0 1.191.186 1.683.557.493.372.877.833 1.153 1.386.276-.038.551-.043.827-.014.276.028.552.09.827.185l2.364.915c.788.304 1.34.828 1.655 1.571a2.535 2.535 0 0 1-.06 2.2l2.6 4.8A2.721 2.721 0 0 1 30 20.971c0 .858-.3 1.577-.901 2.158-.6.58-1.345.871-2.23.871a3.02 3.02 0 0 1-.65-.071 3.46 3.46 0 0 1-.65-.215l-1.833-.857H10.204l-1.654.857a2.222 2.222 0 0 1-.813.243 8.449 8.449 0 0 1-.842.043Z"/></g><defs><clipPath id="a"><path fill="#fff" d="M0 0h34v34H0z"/></clipPath></defs></svg>
